images_sukapura_svg/cmd/32/distributerows.svg

<svg viewBox="0 0 32 32" xmlns="http://www.w3.org/2000/svg" xmlns:xlink="http://www.w3.org/1999/xlink"><linearGradient id="a" gradientTransform="matrix(1 0 0 -1 0 32.001104)" gradientUnits="userSpaceOnUse" x1="16.197517" x2="16.009514" y1="1.562451" y2="11.249951"><stop offset="0" stop-color="#0040dd"/><stop offset="1" stop-color="#0a84ff"/></linearGradient><path d="m16.023438 30.001104c-.269959.0038-.529946-.10191-.720704-.292969l-5-5c-.6297859-.629416-.183358-1.706022.707032-1.705078h2.990234v-4.003057c0-.554.446-1 1-1h2c.554 0 1 .446 1 1v4.003057h3.009766c.890389-.000943 1.336817 1.075662.707031 1.705078l-5 5c-.184063.18435-.432875.289481-.693359.292969z" fill="url(#a)"/><path d="m4 4v6h24v-6z" fill="#fff"/><path d="m3 4v6h1 5 1 5 1 5 1 6 1v-6h-1-6-1-5-1-5-1-5zm1 1h5 1 5 1 5 1 6v4h-6-1-5-1-5-1-5z" fill="#69696e"/><path d="m4 11v5h24v-5z" fill="#fff"/><path d="m3 11v5h1 5 1 5 1 5 1 6 1v-5h-1v4h-6-1-5-1-5-1-5v-4z" fill="#69696e"/><g fill="#bababa"><path d="m9 5v4h1v-4zm6 0v4h1v-4zm6 0v4h1v-4z"/><path d="m9 11v4h1v-4zm6 0v4h1v-4zm6 0v4h1v-4z"/></g></svg>

<?xml version="1.0" encoding="UTF-8" standalone="no"?>
<svg
   xmlns:dc="http://purl.org/dc/elements/1.1/"
   xmlns:cc="http://creativecommons.org/ns#"
   xmlns:rdf="http://www.w3.org/1999/02/22-rdf-syntax-ns#"
   xmlns:svg="http://www.w3.org/2000/svg"
   xmlns="http://www.w3.org/2000/svg"
   xmlns:xlink="http://www.w3.org/1999/xlink"
   xmlns:sodipodi="http://sodipodi.sourceforge.net/DTD/sodipodi-0.dtd"
   xmlns:inkscape="http://www.inkscape.org/namespaces/inkscape"
   viewBox="0 0 32 32"
   version="1.1"
   id="svg18"
   sodipodi:docname="distributerows.svg"
   inkscape:version="0.92.3 (unknown)"
   inkscape:export-filename="/home/rizmut/Dokumen/Rizmut/Github/libreoffice-style-sukapura/images_sukapura/cmd/32/setoptimalrowheight.png"
   inkscape:export-xdpi="96"
   inkscape:export-ydpi="96">
  <metadata
     id="metadata24">
    <rdf:RDF>
      <cc:Work
         rdf:about="">
        <dc:format>image/svg+xml</dc:format>
        <dc:type
           rdf:resource="http://purl.org/dc/dcmitype/StillImage" />
        <dc:title></dc:title>
      </cc:Work>
    </rdf:RDF>
  </metadata>
  <defs
     id="defs22">
    <linearGradient
       gradientTransform="translate(75,-7)"
       id="a-367"
       gradientUnits="userSpaceOnUse"
       x1="14"
       x2="13.79661"
       y1="22"
       y2="2.1355929">
      <stop
         offset="0"
         stop-color="#0040dd"
         id="stop2206" />
      <stop
         offset="1"
         stop-color="#0a84ff"
         id="stop2208" />
    </linearGradient>
    <linearGradient
       inkscape:collect="always"
       xlink:href="#a-367"
       id="linearGradient894"
       gradientUnits="userSpaceOnUse"
       x1="16.197517"
       y1="1.5624514"
       x2="16.009514"
       y2="11.249951"
       gradientTransform="matrix(1,0,0,-1,0,32.001104)" />
  </defs>
  <sodipodi:namedview
     pagecolor="#ffffff"
     bordercolor="#666666"
     borderopacity="1"
     objecttolerance="10"
     gridtolerance="10"
     guidetolerance="10"
     inkscape:pageopacity="0"
     inkscape:pageshadow="2"
     inkscape:window-width="1366"
     inkscape:window-height="706"
     id="namedview20"
     showgrid="true"
     inkscape:snap-global="true"
     inkscape:zoom="5.6568542"
     inkscape:cx="19.194464"
     inkscape:cy="21.042634"
     inkscape:window-x="0"
     inkscape:window-y="0"
     inkscape:window-maximized="1"
     inkscape:current-layer="svg18"
     inkscape:snap-smooth-nodes="true">
    <inkscape:grid
       type="xygrid"
       id="grid834"
       spacingx="0.5"
       spacingy="0.5"
       empspacing="2" />
  </sodipodi:namedview>
  <path
     inkscape:connector-curvature="0"
     style="fill:url(#linearGradient894);fill-opacity:1;stroke:none;stroke-width:1.99996603;stroke-linecap:round;stroke-linejoin:round"
     d="m 16.023438,30.001104 c -0.269959,0.0038 -0.529946,-0.10191 -0.720704,-0.292969 l -5,-5 C 9.6729481,24.078719 10.119376,23.002113 11.009766,23.003057 H 14 V 19 c 0,-0.554 0.446,-1 1,-1 h 2 c 0.554,0 1,0.446 1,1 v 4.003057 h 3.009766 c 0.890389,-9.43e-4 1.336817,1.075662 0.707031,1.705078 l -5,5 c -0.184063,0.18435 -0.432875,0.289481 -0.693359,0.292969 z"
     id="path892"
     sodipodi:nodetypes="cccccssssccccc" />
  <path
     inkscape:connector-curvature="0"
     style="fill:#ffffff"
     d="m 4,4 v 6 H 28 V 4 Z"
     id="path2-3" />
  <path
     style="fill:#69696e;fill-opacity:1"
     d="M 3 4 L 3 10 L 4 10 L 9 10 L 10 10 L 15 10 L 16 10 L 21 10 L 22 10 L 28 10 L 29 10 L 29 4 L 28 4 L 22 4 L 21 4 L 16 4 L 15 4 L 10 4 L 9 4 L 4 4 L 3 4 z M 4 5 L 9 5 L 10 5 L 15 5 L 16 5 L 21 5 L 22 5 L 28 5 L 28 9 L 22 9 L 21 9 L 16 9 L 15 9 L 10 9 L 9 9 L 4 9 L 4 5 z "
     id="path4-6" />
  <path
     inkscape:connector-curvature="0"
     style="fill:#ffffff"
     d="m 4,11 v 5 h 24 v -5 z"
     id="path12-7" />
  <path
     style="fill:#69696e;fill-opacity:1"
     d="M 3 11 L 3 16 L 4 16 L 9 16 L 10 16 L 15 16 L 16 16 L 21 16 L 22 16 L 28 16 L 29 16 L 29 11 L 28 11 L 28 15 L 22 15 L 21 15 L 16 15 L 15 15 L 10 15 L 9 15 L 4 15 L 4 11 L 3 11 z "
     id="path14-5" />
  <path
     id="path1438"
     d="m 9,5 v 4 h 1 V 5 Z m 6,0 v 4 h 1 V 5 Z m 6,0 v 4 h 1 V 5 Z"
     style="fill:#bababa;fill-opacity:1"
     inkscape:connector-curvature="0" />
  <path
     inkscape:connector-curvature="0"
     style="fill:#bababa;fill-opacity:1"
     d="m 9,11 v 4 h 1 v -4 z m 6,0 v 4 h 1 v -4 z m 6,0 v 4 h 1 v -4 z"
     id="path1440" />
</svg>
